src/lib/packages/icons/src/assets/line/server.svg

<svg width="24" height="24" viewBox="0 0 24 24" fill="none" xmlns="http://www.w3.org/2000/svg">
<path d="M21.75 9V6C21.75 3.582 20.418 2.25 18 2.25H6C3.582 2.25 2.25 3.582 2.25 6V9C2.25 10.366 2.68912 11.372 3.49512 12C2.68912 12.628 2.25 13.634 2.25 15V18C2.25 20.418 3.582 21.75 6 21.75H18C20.418 21.75 21.75 20.418 21.75 18V15C21.75 13.634 21.3109 12.628 20.5049 12C21.3109 11.372 21.75 10.366 21.75 9ZM20.25 15V18C20.25 19.577 19.577 20.25 18 20.25H6C4.423 20.25 3.75 19.577 3.75 18V15C3.75 13.423 4.423 12.75 6 12.75H18C19.577 12.75 20.25 13.423 20.25 15ZM6 11.25C4.423 11.25 3.75 10.577 3.75 9V6C3.75 4.423 4.423 3.75 6 3.75H18C19.577 3.75 20.25 4.423 20.25 6V9C20.25 10.577 19.577 11.25 18 11.25H6ZM15.5 7.51196C15.5 8.06396 15.052 8.51196 14.5 8.51196C13.948 8.51196 13.5 8.06396 13.5 7.51196C13.5 6.95996 13.948 6.51196 14.5 6.51196C15.052 6.51196 15.5 6.95996 15.5 7.51196ZM18.5 7.51196C18.5 8.06396 18.052 8.51196 17.5 8.51196C16.948 8.51196 16.5 8.06396 16.5 7.51196C16.5 6.95996 16.948 6.51196 17.5 6.51196C18.052 6.51196 18.5 6.95996 18.5 7.51196ZM13.5 16.5C13.5 15.948 13.948 15.5 14.5 15.5C15.052 15.5 15.5 15.948 15.5 16.5C15.5 17.052 15.052 17.5 14.5 17.5C13.948 17.5 13.5 17.052 13.5 16.5ZM16.5 16.5C16.5 15.948 16.948 15.5 17.5 15.5C18.052 15.5 18.5 15.948 18.5 16.5C18.5 17.052 18.052 17.5 17.5 17.5C16.948 17.5 16.5 17.052 16.5 16.5Z" fill="currentColor"/>
</svg>

<svg xmlns="http://www.w3.org/2000/svg" width="24" height="24" fill="none"><path fill="currentColor" d="M21.75 9V6c0-2.418-1.332-3.75-3.75-3.75H6C3.582 2.25 2.25 3.582 2.25 6v3c0 1.366.44 2.372 1.245 3-.806.628-1.245 1.634-1.245 3v3c0 2.418 1.332 3.75 3.75 3.75h12c2.418 0 3.75-1.332 3.75-3.75v-3c0-1.366-.44-2.372-1.245-3 .806-.628 1.245-1.634 1.245-3Zm-1.5 6v3c0 1.577-.673 2.25-2.25 2.25H6c-1.577 0-2.25-.673-2.25-2.25v-3c0-1.577.673-2.25 2.25-2.25h12c1.577 0 2.25.673 2.25 2.25ZM6 11.25c-1.577 0-2.25-.673-2.25-2.25V6c0-1.577.673-2.25 2.25-2.25h12c1.577 0 2.25.673 2.25 2.25v3c0 1.577-.673 2.25-2.25 2.25H6Zm9.5-3.738a1 1 0 1 1-2 0 1 1 0 0 1 2 0Zm3 0a1 1 0 1 1-2 0 1 1 0 0 1 2 0Zm-5 8.988a1 1 0 1 1 2 0 1 1 0 0 1-2 0Zm3 0a1 1 0 1 1 2 0 1 1 0 0 1-2 0Z"/></svg>
